assets/images/ico_done.svg

<svg width="97" height="97" viewBox="0 0 97 97" fill="none" xmlns="http://www.w3.org/2000/svg">
<path fill-rule="evenodd" clip-rule="evenodd" d="M48.5 82C67.0015 82 82 67.0015 82 48.5C82 29.9985 67.0015 15 48.5 15C29.9985 15 15 29.9985 15 48.5C15 67.0015 29.9985 82 48.5 82Z" fill="#023869"/>
<path d="M48.5 89.5C71.1437 89.5 89.5 71.1437 89.5 48.5C89.5 25.8563 71.1437 7.5 48.5 7.5C25.8563 7.5 7.5 25.8563 7.5 48.5C7.5 71.1437 25.8563 89.5 48.5 89.5Z" stroke="#023869" stroke-opacity="0.12" stroke-width="15"/>
<path d="M62.8498 37.8716C62.5795 37.9106 62.3299 38.0388 62.1407 38.2358C55.8344 44.5557 50.091 50.8051 43.876 57.0753L35.5583 50.425C35.3041 50.2216 34.9796 50.1276 34.6561 50.1635C34.3326 50.1995 34.0367 50.3625 33.8334 50.6166C33.6301 50.8708 33.536 51.1952 33.572 51.5187C33.6079 51.8422 33.7709 52.1382 34.025 52.3415L43.2244 59.701C43.4605 59.8876 43.7568 59.9809 44.0572 59.9632C44.3576 59.9455 44.641 59.8181 44.8535 59.6051C51.4205 53.024 57.349 46.5104 63.8656 39.9798C64.0558 39.8011 64.1841 39.5664 64.2318 39.3099C64.2795 39.0533 64.2442 38.7882 64.1309 38.5531C64.0176 38.318 63.8323 38.1252 63.6019 38.0026C63.3715 37.8801 63.1081 37.8341 62.8498 37.8716Z" fill="white"/>
</svg>

<svg width="97" height="97" fill="none" xmlns="http://www.w3.org/2000/svg"><path fill-rule="evenodd" clip-rule="evenodd" d="M48.5 82C67.001 82 82 67.001 82 48.5 82 29.998 67.001 15 48.5 15 29.998 15 15 29.998 15 48.5 15 67.001 29.998 82 48.5 82z" fill="#023869"/><path d="M48.5 89.5c22.644 0 41-18.356 41-41s-18.356-41-41-41-41 18.356-41 41 18.356 41 41 41z" stroke="#023869" stroke-opacity=".12" stroke-width="15"/><path d="M62.85 37.872c-.27.039-.52.167-.71.364-6.306 6.32-12.049 12.57-18.264 18.84l-8.318-6.651a1.227 1.227 0 10-1.533 1.917l9.2 7.359a1.227 1.227 0 001.628-.096C51.42 53.024 57.35 46.51 63.867 39.98a1.227 1.227 0 00-1.016-2.108z" fill="#fff"/></svg>
